X: 1
T: Shche ne Vmerla Ukrayiny ni Slava, ni volya
T: Ukrainian National Anthem
C: trad.
R: march
S: https://www.8notes.com/scores/34640.asp
Z: 2022 John Chambers <jc:trillian.mit.edu>
M: C
L: 1/8
K: F
|: "F"[A3F3][AF] ([AF][GE][AF])[BG] | [c3A3][BG] "A7"[A2F2][G2E2^C2] | "Dm"[F2D2][A2F2] "A"[E2^C2][A2C2] |\
[1 "Dm"[D3D3][E^C] [F2D2]"C"[G2E2] :|[2 "Dm"[D4D4] D2z2 |]
|: "A"[E2^C2][E2C2] ([AC][GE][FD])[EC] | ("Dm"[DD3-]EF)[DD] "A"[E2^C2][E2C2] |\
[1 "Dm"[F2D2][F2D2] "C"[G2E2][G2E2] | "F"[A4F4] [A2F2]z2 :|\
[2 "Dm"[F2D2][A2F2] "A"[E2^C2][A2C2] | "Dm"[D3D3][E^C] ([FD][GE][AF])[BG] |]
|: "F"[c3A3][=B^G] [c2A2][A2F2] | "C"[G2E2][G2E2] ([cE][BG]"^A7/C#"[AF])[GE] |\
[1,3 "Dm"[F2D2][F2D2] "C"[G2E2][G2C2] | ("F"[A3F3][GE][A2F2])"C7"[B2G2] :|\
[2,4 "Dm"[F2D2][A2F2] "A"[E2^C2][A2C2] | "Dm"[D4D4] [D2D2]z2 :|
